X:07
T:Admiral Benbow (07AbDT or 08AbTf Transposed to G)
Z:Digital Tradition edited by David Kidd
M:3/4
L:1/8
K:G
C2| (F2 _B2) c2| cB _B2 FG| _B2 =B2 G2| F4CC|
(F2_B2) c2|cB _B2 FG| _B2 =B2 G2| F4 =F^F| G2 C2 G2|
F=F ^DC CC|F2(FG) _BF| B4_BG|
F2 (_B2 c2)| cB _B2 FG| _B2 =B2 G2| F4||
